X: 308
T:Gan Ainm
M:3/4
L:1/8
Q:180
C:Tim O'Leary
S:John Wynne
R:Waltz
Z:Andrew Pickering
K:D
de|fe d2 A2|FG A2 F2|G2 B2 e2|e2 A2 d2|
GF G2 d2|FE F2 D2|G2 GA BG|A4 GF|
GF GA Bc|d2 A2 d2|e2 A2 e2|(f2 f)g af|
g2 gf ed|a2 A2 F2|EG Bd BA|B4:|
de|fA df af|eA ce ae|dB GB dB|(c2 c)A F2|
G2 Bc dA|F2 AF DF|E2 ef ed|c2 A2 ag|
fA df af|e2 ag fe|d2 AG FD|B4 Bc|
d2 Ad ed|e2 ef ga|fe df ec|d4:|

